; generated by PrusaSlicer 2.5.0+MacOS-x64 on 2023-06-15 at 02:13:34 UTC

; 

; external perimeters extrusion width = 0.42mm
; perimeters extrusion width = 0.44mm
; infill extrusion width = 0.44mm
; solid infill extrusion width = 0.44mm
; top infill extrusion width = 0.40mm
; first layer extrusion width = 0.42mm

M107
;TYPE:Custom
G90 ; use absolute coordinates
M83 ; extruder relative mode
M140 S60 ; set final bed temp
M104 S150 ; set temporary nozzle temp to prevent oozing during homing and auto bed leveling
G4 S10 ; allow partial nozzle warmup
G28 ; home all axis
G29 ; auto bed levelling
G1 Z50 F240
G1 X2 Y10 F3000
M104 S205 ; set final nozzle temp
M190 S60 ; wait for bed temp to stabilize
M109 S205 ; wait for nozzle temp to stabilize
G1 Z0.28 F240
G92 E0
G1 Y140 E10 F1500 ; prime the nozzle
G1 X2.3 F5000
G92 E0
G1 Y10 E10 F1200 ; prime the nozzle
G92 E0
G21 ; set units to millimeters
G90 ; use absolute coordinates
M83 ; use relative distances for extrusion
; Filament gcode
M107
;LAYER_CHANGE
;Z:0.2
;HEIGHT:0.2
;BEFORE_LAYER_CHANGE
G92 E0
;0.2


G1 E-5 F3600
G1 Z.2 F9000
;AFTER_LAYER_CHANGE
;0.2
G1 X43.607 Y67.703
G1 E5 F2400
M204 S500
;TYPE:Skirt/Brim
;WIDTH:0.42
G1 F1200
G1 X45.5 Y67.123 E.06207
G1 X185.5 Y67.123 E4.3896
G1 X187.083 Y67.517 E.05115
G1 X188.297 Y68.607 E.05115
G1 X188.877 Y70.5 E.06207
G1 X188.877 Y160.5 E2.82189
G1 X188.483 Y162.083 E.05115
G1 X187.393 Y163.297 E.05115
G1 X185.5 Y163.877 E.06207
G1 X45.5 Y163.877 E4.3896
G1 X43.917 Y163.483 E.05115
G1 X42.703 Y162.393 E.05115
G1 X42.123 Y160.5 E.06207
G1 X42.123 Y70.5 E2.82189
G1 X42.517 Y68.917 E.05115
G1 X43.567 Y67.748 E.04927
G1 E-3.5 F3600
;WIPE_START
G1 F7200
G1 X45.5 Y67.123 E-.96489
G1 X46.469 Y67.123 E-.46011
;WIPE_END
G1 E-.075 F3600
G1 X46.564 Y71.564 F9000
G1 E5 F2400
;TYPE:Perimeter
;WIDTH:0.419999
G1 F1200
G1 X184.436 Y71.564 E4.32286
G1 X184.436 Y159.436 E2.75515
G1 X46.564 Y159.436 E4.32286
G1 X46.564 Y71.624 E2.75327
G1 X46.187 Y71.187 F9000
G1 F1200
G1 X184.813 Y71.187 E4.34651
G1 X184.813 Y159.813 E2.7788
G1 X46.187 Y159.813 E4.34651
G1 X46.187 Y71.247 E2.77692
G1 X45.81 Y70.81 F9000
;TYPE:External perimeter
G1 F1200
G1 X185.19 Y70.81 E4.37015
G1 X185.19 Y160.19 E2.80244
G1 X45.81 Y160.19 E4.37015
G1 X45.81 Y70.87 E2.80056
G1 X46.203 Y70.886 F9000
G1 E-3.5 F3600
;WIPE_START
G1 F7200
G1 X48.81 Y70.869 E-1.425
;WIPE_END
G1 E-.075 F3600
G1 X57.96 Y84.768 F9000
G1 E5 F2400
;TYPE:Perimeter
G1 F1200
G1 X58.137 Y84.278 E.01633
G1 X58.534 Y83.708 E.02177
G1 X59.065 Y83.26 E.02177
G1 X59.693 Y82.965 E.02177
G1 X60.35 Y82.846 E.02092
G1 X61.055 Y82.9 E.02216
G1 X61.306 Y82.965 E.00815
G1 X61.834 Y83.193 E.01803
G1 X62.292 Y83.534 E.01789
G1 X62.74 Y84.065 E.02177
G1 X63.035 Y84.693 E.02177
G1 X63.157 Y85.377 E.02177
G1 X63.098 Y86.069 E.02177
G1 X62.863 Y86.722 E.02177
G1 X62.466 Y87.292 E.02177
G1 X61.935 Y87.74 E.02177
G1 X61.307 Y88.035 E.02177
G1 X60.623 Y88.157 E.02177
G1 X59.931 Y88.098 E.02177
G1 X59.278 Y87.863 E.02177
G1 X58.708 Y87.466 E.02177
G1 X58.26 Y86.935 E.02177
G1 X57.965 Y86.307 E.02177
G1 X57.843 Y85.623 E.02177
G1 X57.902 Y84.931 E.02177
G1 X57.94 Y84.824 E.00356
G1 X58.312 Y84.884 F9000
G1 F1200
G1 X58.486 Y84.422 E.01546
G1 X58.833 Y83.938 E.0187
G1 X59.294 Y83.56 E.0187
G1 X59.838 Y83.314 E.0187
G1 X60.399 Y83.22 E.01784
G1 X61.011 Y83.274 E.01926
G1 X61.578 Y83.486 E.01896
G1 X62.062 Y83.833 E.0187
G1 X62.44 Y84.294 E.0187
G1 X62.686 Y84.838 E.0187
G1 X62.783 Y85.426 E.0187
G1 X62.725 Y86.02 E.0187
G1 X62.514 Y86.578 E.0187
G1 X62.167 Y87.062 E.0187
G1 X61.706 Y87.44 E.0187
G1 X61.162 Y87.686 E.0187
G1 X60.574 Y87.783 E.0187
G1 X59.98 Y87.725 E.0187
G1 X59.422 Y87.514 E.0187
G1 X58.938 Y87.167 E.0187
G1 X58.56 Y86.706 E.0187
G1 X58.314 Y86.162 E.0187
G1 X58.217 Y85.574 E.0187
G1 X58.291 Y84.94 E.02001
G1 X58.654 Y85.005 F9000
;TYPE:External perimeter
G1 F1200
G1 X58.859 Y84.524 E.01639
G1 X59.167 Y84.132 E.01563
G1 X59.567 Y83.834 E.01563
G1 X60.03 Y83.649 E.01563
G1 X60.495 Y83.594 E.01469
G1 X60.993 Y83.654 E.01574
G1 X61.456 Y83.845 E.0157
G1 X61.857 Y84.155 E.0159
G1 X62.166 Y84.567 E.01613
G1 X62.351 Y85.03 E.01563
G1 X62.409 Y85.525 E.01563
G1 X62.338 Y86.018 E.01563
G1 X62.141 Y86.476 E.01563
G1 X61.833 Y86.868 E.01563
G1 X61.433 Y87.166 E.01563
G1 X60.97 Y87.351 E.01563
G1 X60.475 Y87.409 E.01563
G1 X59.982 Y87.338 E.01563
G1 X59.524 Y87.141 E.01563
G1 X59.132 Y86.833 E.01563
G1 X58.834 Y86.433 E.01563
G1 X58.649 Y85.97 E.01563
G1 X58.591 Y85.525 E.0141
G1 X58.647 Y85.065 E.01453
G1 X58.374 Y84.72 F9000
G1 E-3.5 F3600
;WIPE_START
G1 F7200
G1 X58.859 Y84.524 E-.27587
G1 X59.167 Y84.132 E-.23679
G1 X59.567 Y83.834 E-.23679
G1 X60.03 Y83.649 E-.23679
G1 X60.495 Y83.594 E-.22255
G1 X60.947 Y83.648 E-.21621
;WIPE_END
G1 E-.075 F3600
G1 X84.471 Y105.662 F9000
G1 E5 F2400
;TYPE:Perimeter
G1 F1200
G1 X84.493 Y105.551 E.00355
G1 X85.356 Y103.181 E.07908
G1 X86.426 Y100.833 E.0809
G1 X87.679 Y98.577 E.0809
G1 X89.106 Y96.428 E.0809
G1 X90.699 Y94.398 E.0809
G1 X91.713 Y93.296 E.04697
G1 X91.172 Y93.485 E.01797
G1 X90.623 Y93.557 E.01737
G1 X89.828 Y93.485 E.02504
G1 X89.078 Y93.209 E.02504
G1 X88.506 Y92.81 E.02187
G1 X88.251 Y92.575 E.01087
G1 X87.914 Y92.135 E.01737
G1 X87.791 Y91.922 E.00772
G1 X87.579 Y91.41 E.01737
G1 X87.515 Y91.172 E.00772
G1 X87.443 Y90.623 E.01737
G1 X87.443 Y90.377 E.00772
G1 X87.515 Y89.828 E.01737
G1 X87.721 Y89.247 E.01932
G1 X87.914 Y88.865 E.01342
G1 X88.251 Y88.425 E.01737
G1 X88.425 Y88.251 E.00772
G1 X88.865 Y87.914 E.01737
G1 X89.078 Y87.791 E.00772
G1 X89.59 Y87.579 E.01737
G1 X89.828 Y87.515 E.00772
G1 X90.346 Y87.447 E.01641
G1 X91.159 Y87.514 E.02558
G1 X91.41 Y87.579 E.00812
G1 X91.922 Y87.791 E.01738
G1 X92.135 Y87.914 E.00772
G1 X92.575 Y88.251 E.01737
G1 X92.978 Y88.725 E.0195
G1 X93.209 Y89.078 E.01324
G1 X93.421 Y89.59 E.01737
G1 X93.554 Y90.356 E.02437
G1 X93.557 Y90.623 E.00839
G1 X93.485 Y91.172 E.01737
G1 X93.296 Y91.713 E.01797
G1 X94.341 Y90.748 E.04463
G1 X96.367 Y89.15 E.0809
G1 X98.514 Y87.718 E.0809
G1 X100.767 Y86.46 E.0809
G1 X103.112 Y85.385 E.0809
G1 X105.551 Y84.493 E.08142
G1 X105.874 Y84.436 E.01028
G1 X125.126 Y84.436 E.60364
G1 X125.449 Y84.493 E.01028
G1 X127.888 Y85.385 E.08142
G1 X130.167 Y86.426 E.07856
G1 X132.423 Y87.679 E.0809
G1 X134.572 Y89.106 E.0809
G1 X136.602 Y90.699 E.0809
G1 X137.704 Y91.713 E.04697
G1 X137.515 Y91.172 E.01797
G1 X137.443 Y90.623 E.01737
G1 X137.515 Y89.828 E.02504
G1 X137.791 Y89.078 E.02504
G1 X138.19 Y88.506 E.02187
G1 X138.425 Y88.251 E.01087
G1 X138.865 Y87.914 E.01737
G1 X139.139 Y87.766 E.00976
G1 X139.666 Y87.551 E.01786
G1 X140.346 Y87.447 E.02158
G1 X141.159 Y87.514 E.02557
G1 X141.41 Y87.579 E.00812
G1 X141.922 Y87.791 E.01738
G1 X142.135 Y87.914 E.00772
G1 X142.575 Y88.251 E.01737
G1 X142.749 Y88.425 E.00772
G1 X143.086 Y88.865 E.01737
G1 X143.279 Y89.247 E.01342
G1 X143.462 Y89.713 E.01569
G1 X143.557 Y90.377 E.02104
G1 X143.557 Y90.623 E.00772
G1 X143.485 Y91.172 E.01737
G1 X143.421 Y91.41 E.00772
G1 X143.209 Y91.922 E.01737
G1 X143.086 Y92.135 E.00772
G1 X142.749 Y92.575 E.01737
G1 X142.275 Y92.978 E.0195
G1 X141.922 Y93.209 E.01324
G1 X141.41 Y93.421 E.01737
G1 X140.644 Y93.554 E.02437
G1 X140.377 Y93.557 E.00839
G1 X139.828 Y93.485 E.01737
G1 X139.287 Y93.296 E.01797
G1 X140.252 Y94.341 E.04463
G1 X141.85 Y96.367 E.0809
G1 X143.282 Y98.514 E.0809
G1 X144.54 Y100.767 E.0809
G1 X145.615 Y103.112 E.0809
G1 X146.507 Y105.551 E.08142
G1 X146.564 Y105.874 E.01028
G1 X146.564 Y125.126 E.60364
G1 X146.507 Y125.449 E.01028
G1 X145.644 Y127.819 E.07908
G1 X145.251 Y128.685 E.02981
G1 X144.574 Y130.167 E.0511
G1 X143.321 Y132.423 E.0809
G1 X141.894 Y134.572 E.0809
G1 X140.301 Y136.602 E.0809
G1 X139.287 Y137.704 E.04697
G1 X139.828 Y137.515 E.01797
G1 X140.346 Y137.447 E.01641
G1 X141.159 Y137.514 E.02557
G1 X141.922 Y137.791 E.02544
G1 X142.494 Y138.19 E.02187
G1 X142.749 Y138.425 E.01087
G1 X143.086 Y138.865 E.01737
G1 X143.209 Y139.078 E.00772
G1 X143.421 Y139.59 E.01737
G1 X143.485 Y139.828 E.00772
G1 X143.557 Y140.377 E.01737
G1 X143.557 Y140.623 E.00772
G1 X143.485 Y141.172 E.01737
G1 X143.279 Y141.753 E.01932
G1 X143.086 Y142.135 E.01342
G1 X142.749 Y142.575 E.01737
G1 X142.575 Y142.749 E.00772
G1 X142.135 Y143.086 E.01737
G1 X141.922 Y143.209 E.00772
G1 X141.41 Y143.421 E.01737
G1 X141.172 Y143.485 E.00772
G1 X140.623 Y143.557 E.01737
G1 X140.377 Y143.557 E.00772
G1 X139.828 Y143.485 E.01737
G1 X139.139 Y143.234 E.02298
G1 X138.865 Y143.086 E.00976
G1 X138.425 Y142.749 E.01737
G1 X138.022 Y142.275 E.0195
G1 X137.791 Y141.922 E.01324
G1 X137.579 Y141.41 E.01737
G1 X137.446 Y140.644 E.02437
G1 X137.443 Y140.377 E.00839
G1 X137.515 Y139.828 E.01737
G1 X137.704 Y139.287 E.01797
G1 X136.659 Y140.252 E.04463
G1 X134.633 Y141.85 E.0809
G1 X132.486 Y143.282 E.0809
G1 X130.233 Y144.54 E.0809
G1 X127.888 Y145.615 E.0809
G1 X125.449 Y146.507 E.08142
G1 X125.126 Y146.564 E.01028
G1 X105.874 Y146.564 E.60364
G1 X105.551 Y146.507 E.01028
G1 X103.112 Y145.615 E.08142
G1 X100.833 Y144.574 E.07856
G1 X98.577 Y143.321 E.0809
G1 X96.428 Y141.894 E.0809
G1 X94.398 Y140.301 E.0809
G1 X93.296 Y139.287 E.04697
G1 X93.485 Y139.828 E.01797
G1 X93.557 Y140.377 E.01737
G1 X93.485 Y141.172 E.02504
G1 X93.209 Y141.922 E.02504
G1 X92.81 Y142.494 E.02187
G1 X92.575 Y142.749 E.01087
G1 X92.135 Y143.086 E.01737
G1 X91.861 Y143.234 E.00976
G1 X91.334 Y143.449 E.01786
G1 X90.623 Y143.557 E.02254
G1 X90.377 Y143.557 E.00772
G1 X89.828 Y143.485 E.01737
G1 X89.59 Y143.421 E.00772
G1 X89.078 Y143.209 E.01737
G1 X88.865 Y143.086 E.00772
G1 X88.425 Y142.749 E.01737
G1 X88.251 Y142.575 E.00772
G1 X87.914 Y142.135 E.01737
G1 X87.721 Y141.753 E.01342
G1 X87.538 Y141.287 E.01569
G1 X87.443 Y140.623 E.02104
G1 X87.443 Y140.377 E.00772
G1 X87.515 Y139.828 E.01737
G1 X87.579 Y139.59 E.00772
G1 X87.791 Y139.078 E.01737
G1 X87.914 Y138.865 E.00772
G1 X88.251 Y138.425 E.01737
G1 X88.725 Y138.022 E.0195
G1 X89.078 Y137.791 E.01324
G1 X89.59 Y137.579 E.01737
G1 X90.346 Y137.447 E.02408
G1 X91.159 Y137.514 E.02558
G1 X91.713 Y137.704 E.01837
G1 X90.748 Y136.659 E.04463
G1 X89.15 Y134.633 E.0809
G1 X87.718 Y132.486 E.0809
G1 X86.46 Y130.233 E.0809
G1 X86.113 Y129.481 E.02597
G1 X85.356 Y127.819 E.05727
G1 X84.493 Y125.449 E.07908
G1 X84.436 Y125.126 E.01028
G1 X84.436 Y105.874 E.60364
G1 X84.46 Y105.721 E.00485
G1 X84.836 Y105.736 F9000
G1 F1200
G1 X85.711 Y103.31 E.08083
G1 X86.092 Y102.472 E.02887
G1 X86.769 Y100.99 E.0511
G1 X88.008 Y98.761 E.07997
G1 X89.42 Y96.637 E.07997
G1 X90.995 Y94.631 E.07997
G1 X91.581 Y93.995 E.02711
;WIDTH:0.463924
G1 X92.127 Y93.371 E.02904
;WIDTH:0.494005
G1 X92.194 Y93.276 E.00432
;WIDTH:0.524085
G1 X92.26 Y93.182 E.00461
G1 X93.182 Y92.26 E.05216
G1 X93.386 Y92.096 E.01046
;WIDTH:0.489391
G1 X93.589 Y91.932 E.00971
;WIDTH:0.454695
G1 X93.792 Y91.768 E.00895
;WIDTH:0.419999
G1 X94.597 Y91.025 E.03434
G1 X96.6 Y89.446 E.07997
G1 X98.723 Y88.032 E.07997
G1 X100.95 Y86.79 E.07997
G1 X103.269 Y85.728 E.07997
G1 X105.68 Y84.847 E.08049
G1 X105.874 Y84.813 E.00617
G1 X125.126 Y84.813 E.60364
G1 X125.32 Y84.847 E.00617
G1 X127.731 Y85.728 E.08049
G1 X130.01 Y86.769 E.07856
G1 X132.239 Y88.008 E.07997
G1 X134.363 Y89.42 E.07997
G1 X136.369 Y90.995 E.07997
G1 X137.005 Y91.581 E.02711
;WIDTH:0.463924
G1 X137.629 Y92.127 E.02904
;WIDTH:0.494005
G1 X137.724 Y92.194 E.00432
;WIDTH:0.524085
G1 X137.818 Y92.26 E.00461
G1 X138.74 Y93.182 E.05216
G1 X138.904 Y93.386 E.01046
;WIDTH:0.489391
G1 X139.068 Y93.589 E.00971
;WIDTH:0.454695
G1 X139.232 Y93.792 E.00895
;WIDTH:0.419999
G1 X139.975 Y94.597 E.03434
G1 X141.554 Y96.6 E.07997
G1 X142.968 Y98.723 E.07997
G1 X144.21 Y100.95 E.07997
G1 X145.272 Y103.269 E.07997
G1 X146.153 Y105.68 E.08049
G1 X146.187 Y105.874 E.00617
G1 X146.187 Y125.126 E.60364
G1 X146.153 Y125.32 E.00617
G1 X145.289 Y127.69 E.07908
G1 X144.908 Y128.528 E.02887
G1 X144.231 Y130.01 E.0511
G1 X142.992 Y132.239 E.07997
G1 X141.58 Y134.363 E.07997
G1 X140.005 Y136.369 E.07997
G1 X139.419 Y137.005 E.02711
;WIDTH:0.463924
G1 X138.873 Y137.629 E.02904
;WIDTH:0.494005
G1 X138.806 Y137.724 E.00432
;WIDTH:0.524086
G1 X138.74 Y137.818 E.00461
G1 X137.818 Y138.74 E.05216
G1 X137.614 Y138.904 E.01046
;WIDTH:0.489391
G1 X137.411 Y139.068 E.00971
;WIDTH:0.454695
G1 X137.208 Y139.232 E.00895
;WIDTH:0.419999
G1 X136.403 Y139.975 E.03434
G1 X134.4 Y141.554 E.07997
G1 X132.277 Y142.968 E.07997
G1 X130.05 Y144.21 E.07997
G1 X127.731 Y145.272 E.07997
G1 X125.32 Y146.153 E.08049
G1 X125.126 Y146.187 E.00617
G1 X105.874 Y146.187 E.60364
G1 X105.68 Y146.153 E.00617
G1 X103.269 Y145.272 E.08049
G1 X100.99 Y144.231 E.07856
G1 X98.761 Y142.992 E.07997
G1 X96.637 Y141.58 E.07997
G1 X94.631 Y140.005 E.07997
G1 X93.995 Y139.419 E.02711
;WIDTH:0.464723
G1 X93.37 Y138.873 E.02909
;WIDTH:0.494406
G1 X93.276 Y138.806 E.00433
;WIDTH:0.524088
G1 X93.182 Y138.74 E.00461
G1 X92.26 Y137.818 E.05216
G1 X92.096 Y137.614 E.01046
;WIDTH:0.489391
G1 X91.932 Y137.411 E.00971
;WIDTH:0.454695
G1 X91.768 Y137.207 E.00895
;WIDTH:0.419999
G1 X91.025 Y136.403 E.03433
G1 X89.446 Y134.4 E.07997
G1 X88.032 Y132.277 E.07997
G1 X86.79 Y130.05 E.07997
G1 X86.456 Y129.324 E.02503
G1 X85.711 Y127.69 E.05634
G1 X84.847 Y125.32 E.07908
G1 X84.813 Y125.126 E.00617
G1 X84.813 Y105.857 E.60417
G1 X84.825 Y105.795 E.00198
G1 X85.201 Y105.809 F9000
;TYPE:External perimeter
G1 F1200
G1 X86.065 Y103.44 E.07908
G1 X87.114 Y101.144 E.07912
G1 X87.442 Y100.554 E.02119
G1 X88.338 Y98.944 E.05775
G1 X89.734 Y96.846 E.07903
G1 X91.294 Y94.862 E.07912
G1 X93.002 Y93.012 E.07894
G1 X94.853 Y91.302 E.07903
G1 X95.283 Y90.963 E.01716
G1 X96.834 Y89.743 E.06187
G1 X98.932 Y88.346 E.07903
G1 X101.134 Y87.119 E.07903
G1 X103.44 Y86.065 E.0795
G1 X105.874 Y85.19 E.08111
G1 X125.191 Y85.201 E.60566
G1 X127.574 Y86.071 E.07955
G1 X129.866 Y87.119 E.07903
G1 X132.056 Y88.338 E.07856
G1 X134.154 Y89.734 E.07903
G1 X136.138 Y91.294 E.07912
G1 X137.988 Y93.002 E.07894
G1 X139.698 Y94.853 E.07903
G1 X140.037 Y95.283 E.01716
G1 X141.257 Y96.834 E.06187
G1 X142.654 Y98.932 E.07903
G1 X143.881 Y101.134 E.07903
G1 X144.929 Y103.426 E.07903
G1 X145.799 Y105.809 E.07955
G1 X145.799 Y125.191 E.60769
G1 X144.935 Y127.56 E.07908
G1 X143.886 Y129.856 E.07912
G1 X143.558 Y130.446 E.02119
G1 X142.662 Y132.056 E.05775
G1 X141.266 Y134.154 E.07903
G1 X139.708 Y136.136 E.07903
G1 X137.998 Y137.988 E.07903
G1 X136.147 Y139.698 E.07903
G1 X135.717 Y140.037 E.01716
G1 X134.166 Y141.257 E.06187
G1 X132.068 Y142.654 E.07903
G1 X129.866 Y143.881 E.07903
G1 X127.56 Y144.935 E.0795
G1 X125.126 Y145.81 E.08111
G1 X105.809 Y145.799 E.60566
G1 X103.426 Y144.929 E.07955
G1 X101.134 Y143.881 E.07903
G1 X98.944 Y142.662 E.07856
G1 X96.846 Y141.266 E.07903
G1 X94.862 Y139.706 E.07912
G1 X93.012 Y137.998 E.07894
G1 X91.302 Y136.147 E.07903
G1 X90.963 Y135.717 E.01716
G1 X89.743 Y134.166 E.06187
G1 X88.346 Y132.068 E.07903
G1 X87.119 Y129.866 E.07903
G1 X86.071 Y127.574 E.07903
G1 X85.201 Y125.191 E.07955
G1 X85.19 Y105.868 E.60584
G1 X84.907 Y105.539 F9000
G1 E-3.5 F3600
;WIPE_START
G1 F7200
G1 X86.065 Y103.44 E-1.22622
G1 X86.239 Y103.059 E-.19878
;WIPE_END
G1 E-.075 F3600
G1 X89.802 Y93.082 F9000
G1 E5 F2400
;TYPE:Perimeter
G1 F1200
G1 X89.222 Y92.861 E.01947
G1 X88.735 Y92.511 E.0188
G1 X88.55 Y92.345 E.00779
G1 X88.213 Y91.906 E.01737
G1 X87.927 Y91.266 E.02197
G1 X87.817 Y90.574 E.02197
G1 X87.889 Y89.877 E.02197
G1 X88.069 Y89.391 E.01625
G1 X88.213 Y89.094 E.01034
G1 X88.55 Y88.655 E.01737
G1 X89.094 Y88.213 E.02197
G1 X89.734 Y87.927 E.02197
G1 X90.396 Y87.821 E.02101
G1 X91.115 Y87.888 E.02266
G1 X91.717 Y88.114 E.02015
G1 X91.906 Y88.213 E.00668
G1 X92.345 Y88.55 E.01737
G1 X92.679 Y88.954 E.01643
G1 X92.861 Y89.222 E.01016
G1 X93.073 Y89.734 E.01737
G1 X93.18 Y90.405 E.02129
G1 X93.111 Y91.123 E.02263
;WIDTH:0.463924
G1 X92.881 Y91.786 E.02456
;WIDTH:0.494006
G1 X92.855 Y91.862 E.003
;WIDTH:0.524087
G1 X92.828 Y91.937 E.0032
G1 X92.472 Y92.362 E.02219
G1 X91.937 Y92.828 E.02837
G1 X91.713 Y92.91 E.00953
;WIDTH:0.48939
G1 X91.49 Y92.991 E.00884
;WIDTH:0.454695
G1 X91.266 Y93.073 E.00816
;WIDTH:0.419999
